src/assets/folder-outline.svg

<svg height="400" viewBox="0 0 528 400" width="528" xmlns="http://www.w3.org/2000/svg"><path d="m464 65s-177.83366 0-192 0c-29.55311-3.9323885-32.684913-65-64-64-2.985442-.66666667-56.318775-.66666667-160 0-26.51 0-48 21.49-48 48v288c0 26.51 21.49 48 48 48h416c26.51 0 48-21.49 48-48v-224c0-26.51-21.49-48-48-48z" fill="none" stroke="#fff" stroke-width="15" transform="translate(8 7)"/></svg>

<?xml version="1.0" encoding="UTF-8"?><svg width="528px" height="400px" viewBox="0 0 528 400" version="1.1" xmlns="http://www.w3.org/2000/svg" xmlns:xlink="http://www.w3.org/1999/xlink"><g stroke="none" stroke-width="1" fill="none" fill-rule="evenodd"><g transform="translate(8.000000, 7.000000)" fill-rule="nonzero" stroke="#FFFFFF" stroke-width="15"><path d="M464,65 C464,65 286.16634,65 272,65 C242.44689,61.0676115 239.315087,5.68434189e-14 208,1 C205.014558,0.333333333 151.681225,0.333333333 48,1 C21.49,1 0,22.49 0,49 L0,337 C0,363.51 21.49,385 48,385 L464,385 C490.51,385 512,363.51 512,337 L512,113 C512,86.49 490.51,65 464,65 Z"></path></g></g></svg>
